adaptive-icons/Test-Icons--V5/action/bug-24.svg

<svg height="24" viewBox="0 0 24 24" width="24" xmlns="http://www.w3.org/2000/svg"><path d="m14.981 5.558c1.538-.962 2.308-2.212 2.5-3.558m-10.962 0c.192 1.346 1.058 2.5 2.5 3.558m8.558 4.807c0-3.077-2.5-5.577-5.577-5.577s-5.577 2.404-5.577 5.481v6.154c0 3.077 2.5 5.577 5.577 5.577s5.577-2.5 5.577-5.577zm4.423 8.847-1.058-1.154h-3.609m4.667-6.846-1.058-1.154h-3.365m-11.154 0h-3.365l-1.058 1.154m20 4-1.058-1.154h-3.365m-10.91 3.999h-3.609l-1.058 1.154m4.423-5.153h-3.365l-1.058 1.154m8.846 2.845h2.308m-3.366-8h4.423m-4.423 4h4.423" fill="none" stroke="#282d37" stroke-linecap="round" stroke-linejoin="round" stroke-width="2"/></svg>

<svg xmlns="http://www.w3.org/2000/svg" id="3" width="24" height="24" viewBox="0 0 24 24"><g fill="none" fill-rule="evenodd" stroke-linecap="round" stroke-linejoin="round" class="page-1"><g stroke="#282D37" stroke-width="2" class="bug"><path d="M14.981 5.558c1.538-.962 2.308-2.212 2.5-3.558M6.519 2c.192 1.346 1.058 2.5 2.5 3.558m8.558 4.807c0-3.077-2.5-5.577-5.577-5.577s-5.577 2.404-5.577 5.481v6.154C6.423 19.5 8.923 22 12 22s5.577-2.5 5.577-5.577v-6.058ZM22 19.212l-1.058-1.154h-3.609M22 11.212l-1.058-1.154h-3.365m-11.154 0H3.058L2 11.212m20 4-1.058-1.154h-3.365m-10.91 3.999H3.058L2 19.211m4.423-5.153H3.058L2 15.212m8.846 2.845h2.308m-3.366-8h4.423m-4.423 4h4.423" class="stroke"/></g></g></svg>
